icons/svg/layers-off.svg

<svg xmlns="http://www.w3.org/2000/svg" version="1.1" baseProfile="full" width="24" height="24" viewBox="0 0 24.00 24.00" xml:space="preserve"><path fill="#000" fill-opacity="1" stroke-linejoin="round" d="M3.27 1L2 2.27l4.22 4.22L3 9l1.63 1.27L12 16l2.1-1.63 1.43 1.43L12 18.54l-7.37-5.73L3 14.07l9 7 4.95-3.85L20.73 21 22 19.73 3.27 1zm16.09 9.27L21 9l-9-7-2.91 2.27 7.87 7.88 2.4-1.88zm.45 4.72l1.19-.92-1.43-1.43-1.19.92 1.43 1.43z"/></svg>

﻿<?xml version="1.0" encoding="utf-8"?>
<!DOCTYPE svg PUBLIC "-//W3C//DTD SVG 1.1//EN" "http://www.w3.org/Graphics/SVG/1.1/DTD/svg11.dtd">
<svg xmlns="http://www.w3.org/2000/svg" xmlns:xlink="http://www.w3.org/1999/xlink" version="1.1" baseProfile="full" width="24" height="24" viewBox="0 0 24.00 24.00" enable-background="new 0 0 24.00 24.00" xml:space="preserve">
	<path fill="#000000" fill-opacity="1" stroke-linejoin="round" d="M 3.27,1L 2,2.27L 6.22,6.49L 3,9L 4.63,10.27L 12,16L 14.1,14.37L 15.53,15.8L 12,18.54L 4.63,12.81L 3,14.07L 12,21.07L 16.95,17.22L 20.73,21L 22,19.73L 3.27,1 Z M 19.36,10.27L 21,9L 12,2L 9.09,4.27L 16.96,12.15L 19.36,10.27 Z M 19.81,14.99L 21,14.07L 19.57,12.64L 18.38,13.56L 19.81,14.99 Z "/>
</svg>
